;FLAVOR:Marlin
;TIME:3809
;Filament used: 5.47904m
;Layer height: 0.2
;MINX:44
;MINY:52
;MINZ:0.2
;MAXX:176
;MAXY:168
;MAXZ:2
;TARGET_MACHINE.NAME:Creality Ender-3 V3 SE
;Generated with Cura_SteamEngine 5.10.0
M220 S100 ;Reset Feedrate
M221 S100 ;Reset Flowrate

G28 ;Home

M420 S1; Use saved mesh leveling data

G92 E0 ;Reset Extruder
G1 Z2.0 F3000 ;Move Z Axis up
G1 X-3 Y20 Z0.28 F5000.0 ;Move to start position
M190 S65 ; Set bed temperature and wait
M109 S220 ; Set hotend temperature and wait
G1 X-3 Y100.0 Z0.28 F1500.0 E15 ;Draw the first line
G1 X-2 Y100.0 Z0.28 F5000.0 ;Move to side a little
G1 X-2 Y20 Z0.28 F1500.0 E30 ;Draw the second line
G92 E0 ;Reset Extruder
G1 E-1.0000 F1800 ;Retract a bit
G1 Z2.0 F3000 ;Move Z Axis up
G1 E0.0000 F1800 

M82 ;absolute extrusion mode
G92 E0
G92 E0
G1 F2400 E-0.8
;LAYER_COUNT:10
;LAYER:0
M107
G0 F9000 X52.761 Y59.116 Z0.2
;TYPE:SKIRT
G1 F2400 E0
G1 F1800 X53.652 Y58.336 E0.03939
G1 X54.233 Y57.863 E0.0643
G1 X55.106 Y57.202 E0.10072
G1 X55.8 Y56.705 E0.12912
G1 X56.353 Y56.34 E0.15115
G1 X57.279 Y55.772 E0.18728
G1 X58.014 Y55.346 E0.21554
G1 X58.596 Y55.039 E0.23743
G1 X59.612 Y54.544 E0.27502
G1 X60.375 Y54.197 E0.30289
G1 X60.971 Y53.951 E0.32434
G1 X61.957 Y53.581 E0.35937
G1 X62.796 Y53.294 E0.38886
G1 X63.44 Y53.101 E0.41122
G1 X64.527 Y52.81 E0.44865
G1 X65.301 Y52.626 E0.47511
G1 X65.96 Y52.494 E0.49746
G1 X67.088 Y52.308 E0.53549
G1 X67.878 Y52.198 E0.56201
G1 X68.549 Y52.131 E0.58444
G1 X69.68 Y52.054 E0.62215
G1 X71.181 Y52.004 E0.6721
G1 X148.308 Y52 E3.23735
G1 X149.773 Y52.029 E3.28609
G1 X150.991 Y52.093 E3.32666
G1 X151.767 Y52.161 E3.35256
G1 X153.207 Y52.349 E3.40087
G1 X153.706 Y52.43 E3.41768
G1 X154.325 Y52.551 E3.43866
G1 X155.402 Y52.791 E3.47536
G1 X156.222 Y53 E3.5035
G1 X156.847 Y53.186 E3.52519
G1 X157.924 Y53.541 E3.56291
G1 X158.703 Y53.82 E3.59043
G1 X159.328 Y54.074 E3.61287
G1 X160.611 Y54.645 E3.65958
G1 X161.067 Y54.864 E3.6764
G1 X161.679 Y55.183 E3.69936
G1 X162.64 Y55.723 E3.73602
G1 X163.311 Y56.123 E3.762
G1 X163.916 Y56.518 E3.78603
G1 X165.099 Y57.349 E3.83412
G1 X165.489 Y57.64 E3.8503
G1 X166.008 Y58.055 E3.8724
G1 X166.856 Y58.777 E3.90945
G1 X167.713 Y59.556 E3.94797
G1 X168.159 Y59.991 E3.96869
G1 X168.81 Y60.676 E4.00012
G1 X169.371 Y61.308 E4.02822
G1 X169.747 Y61.747 E4.04745
G1 X170.137 Y62.233 E4.06818
G1 X170.798 Y63.106 E4.1046
G1 X171.289 Y63.791 E4.13263
G1 X171.66 Y64.353 E4.15502
G1 X172.229 Y65.281 E4.19123
G1 X172.649 Y66.006 E4.2191
G1 X172.963 Y66.603 E4.24153
G1 X173.455 Y67.61 E4.27881
G1 X173.799 Y68.366 E4.30644
G1 X174.043 Y68.961 E4.32782
G1 X174.424 Y69.976 E4.36388
G1 X174.704 Y70.79 E4.39251
G1 X174.896 Y71.43 E4.41474
G1 X175.189 Y72.523 E4.45237
G1 X175.374 Y73.301 E4.47897
G1 X175.506 Y73.96 E4.50133
G1 X175.692 Y75.088 E4.53935
G1 X175.801 Y75.87 E4.56561
G1 X175.869 Y76.548 E4.58827
G1 X175.946 Y77.681 E4.62605
G1 X175.996 Y79.18 E4.67593
G1 X176 Y140.306 E6.70899
G1 X175.978 Y141.592 E6.75177
G1 X175.923 Y142.736 E6.78986
G1 X175.878 Y143.418 E6.81259
G1 X175.787 Y144.265 E6.84093
G1 X175.597 Y145.521 E6.88318
G1 X175.471 Y146.24 E6.90746
G1 X175.295 Y147.052 E6.93509
G1 X174.963 Y148.338 E6.97927
G1 X174.776 Y148.989 E7.00179
G1 X174.519 Y149.773 E7.02923
G1 X174.098 Y150.896 E7.06912
G1 X173.806 Y151.625 E7.09524
G1 X173.511 Y152.291 E7.11947
G1 X173.162 Y153.004 E7.14587
G1 X172.605 Y154.072 E7.18594
G1 X172.297 Y154.624 E7.20696
G1 X171.973 Y155.154 E7.22762
G1 X171.484 Y155.909 E7.25754
G1 X171.059 Y156.543 E7.28293
G1 X170.558 Y157.229 E7.31118
G1 X169.769 Y158.22 E7.35331
G1 X169.315 Y158.762 E7.37683
G1 X168.944 Y159.181 E7.39544
G1 X168.513 Y159.635 E7.41626
G1 X167.842 Y160.309 E7.44789
G1 X167.337 Y160.798 E7.47127
G1 X166.719 Y161.35 E7.49883
G1 X165.752 Y162.146 E7.54049
G1 X165.182 Y162.594 E7.56461
G1 X164.501 Y163.086 E7.59255
G1 X163.508 Y163.744 E7.63217
G1 X162.823 Y164.176 E7.6591
G1 X162.093 Y164.594 E7.68708
G1 X161.231 Y165.045 E7.71944
G1 X160.314 Y165.499 E7.75347
G1 X159.629 Y165.805 E7.77843
G1 X158.906 Y166.095 E7.80434
G1 X157.763 Y166.521 E7.84491
G1 X156.878 Y166.809 E7.87586
G1 X155.702 Y167.132 E7.91642
G1 X155 Y167.308 E7.94049
G1 X154.469 Y167.428 E7.9586
G1 X153.866 Y167.541 E7.97901
G1 X152.892 Y167.696 E8.01181
G1 X152.181 Y167.797 E8.03569
G1 X151.344 Y167.881 E8.06367
G1 X150.115 Y167.956 E8.10463
G1 X148.89 Y167.994 E8.14539
G1 X71.694 Y168 E10.71294
G1 X70.408 Y167.978 E10.75572
G1 X69.264 Y167.923 E10.79381
G1 X68.582 Y167.878 E10.81654
G1 X67.735 Y167.787 E10.84488
G1 X66.479 Y167.597 E10.88713
G1 X65.759 Y167.471 E10.91144
G1 X64.944 Y167.294 E10.93918
G1 X63.665 Y166.964 E10.98311
G1 X63.012 Y166.777 E11.0057
G1 X62.223 Y166.518 E11.03332
G1 X61.104 Y166.098 E11.07307
G1 X60.372 Y165.804 E11.09931
G1 X59.592 Y165.455 E11.12773
G1 X58.491 Y164.904 E11.16868
G1 X57.874 Y164.578 E11.19189
G1 X57.36 Y164.288 E11.21152
G1 X56.848 Y163.974 E11.2315
G1 X56.076 Y163.475 E11.26207
G1 X55.449 Y163.054 E11.28719
G1 X54.77 Y162.557 E11.31518
G1 X53.78 Y161.769 E11.35726
G1 X53.239 Y161.316 E11.38073
G1 X52.819 Y160.944 E11.39939
G1 X52.365 Y160.513 E11.42021
G1 X51.684 Y159.834 E11.4522
G1 X51.2 Y159.335 E11.47532
G1 X50.648 Y158.717 E11.50288
G1 X49.826 Y157.719 E11.54588
G1 X49.399 Y157.173 E11.56894
G1 X48.914 Y156.501 E11.5965
G1 X48.256 Y155.508 E11.63612
G1 X47.824 Y154.823 E11.66306
G1 X47.404 Y154.092 E11.6911
G1 X46.83 Y152.987 E11.73251
G1 X46.498 Y152.309 E11.75762
G1 X46.185 Y151.61 E11.78309
G1 X45.906 Y150.909 E11.80819
G1 X45.48 Y149.767 E11.84873
G1 X45.192 Y148.88 E11.87975
G1 X44.926 Y147.927 E11.91265
G1 X44.695 Y147.021 E11.94375
G1 X44.514 Y146.161 E11.97298
G1 X44.303 Y144.885 E12.016
G1 X44.205 Y144.192 E12.03928
G1 X44.139 Y143.629 E12.05813
G1 X44.094 Y143.032 E12.07804
G1 X44.052 Y142.276 E12.10323
G1 X44.006 Y140.892 E12.14928
G1 X44 Y79.692 E14.1848
G1 X44.029 Y78.228 E14.23351
G1 X44.093 Y77.01 E14.27407
G1 X44.161 Y76.236 E14.29992
G1 X44.349 Y74.793 E14.34832
G1 X44.43 Y74.294 E14.36513
G1 X44.551 Y73.675 E14.38611
G1 X44.791 Y72.599 E14.42278
G1 X44.996 Y71.791 E14.4505
G1 X45.186 Y71.152 E14.47267
G1 X45.542 Y70.073 E14.51046
G1 X45.817 Y69.306 E14.53757
G1 X46.074 Y68.673 E14.56029
G1 X46.645 Y67.389 E14.60703
G1 X46.864 Y66.933 E14.62385
G1 X47.183 Y66.321 E14.64681
G1 X47.723 Y65.36 E14.68347
G1 X48.118 Y64.696 E14.70917
G1 X48.516 Y64.085 E14.73342
G1 X49.15 Y63.177 E14.77025
G1 X49.639 Y62.514 E14.79765
G1 X50.061 Y61.986 E14.82013
G1 X50.777 Y61.145 E14.85687
G1 X51.427 Y60.421 E14.88923
G1 X51.853 Y59.98 E14.90963
G1 X52.332 Y59.512 E14.9319
G1 X52.761 Y59.116 E14.95132
G0 F9000 X53.024 Y59.417
G1 F1800 X53.905 Y58.646 E14.99026
G1 X54.474 Y58.182 E15.01468
G1 X55.339 Y57.527 E15.05076
G1 X56.02 Y57.039 E15.07863
G1 X56.562 Y56.681 E15.10023
G1 X57.479 Y56.118 E15.13602
G1 X58.201 Y55.7 E15.16377
G1 X58.783 Y55.393 E15.18566
G1 X59.777 Y54.908 E15.22244
G1 X60.528 Y54.567 E15.24987
G1 X61.112 Y54.326 E15.27089
G1 X62.098 Y53.956 E15.30591
G1 X62.911 Y53.677 E15.3345
G1 X63.543 Y53.487 E15.35645
G1 X64.62 Y53.199 E15.39353
G1 X65.379 Y53.018 E15.41949
G1 X66.025 Y52.889 E15.4414
G1 X67.143 Y52.704 E15.47909
G1 X67.918 Y52.596 E15.50511
G1 X68.576 Y52.53 E15.52711
G1 X69.693 Y52.454 E15.56434
G1 X71.181 Y52.404 E15.61386
G1 X148.3 Y52.4 E18.17885
G1 X149.752 Y52.428 E18.22715
G1 X150.956 Y52.491 E18.26725
G1 X151.715 Y52.558 E18.2926
G1 X153.143 Y52.744 E18.34049
G1 X153.63 Y52.823 E18.3569
G1 X154.238 Y52.941 E18.3775
G1 X155.303 Y53.179 E18.4138
G1 X156.108 Y53.384 E18.44143
G1 X156.722 Y53.566 E18.46273
G1 X157.789 Y53.917 E18.50009
G1 X158.552 Y54.191 E18.52705
G1 X159.165 Y54.44 E18.54906
G1 X160.438 Y55.006 E18.59539
G1 X160.882 Y55.219 E18.61177
G1 X161.483 Y55.532 E18.63431
G1 X162.435 Y56.067 E18.67063
G1 X163.106 Y56.467 E18.69661
G1 X163.686 Y56.845 E18.71964
G1 X164.86 Y57.67 E18.76736
G1 X165.239 Y57.952 E18.78308
G1 X165.749 Y58.36 E18.8048
G1 X166.587 Y59.073 E18.84139
G1 X167.434 Y59.842 E18.87944
G1 X167.869 Y60.266 E18.89965
G1 X168.511 Y60.942 E18.93066
G1 X169.067 Y61.568 E18.9585
G1 X169.435 Y61.998 E18.97733
G1 X169.818 Y62.474 E18.99765
G1 X170.473 Y63.339 E19.03374
G1 X170.955 Y64.011 E19.06124
G1 X171.319 Y64.562 E19.08321
G1 X171.883 Y65.481 E19.11907
G1 X172.295 Y66.193 E19.14643
G1 X172.604 Y66.779 E19.16846
G1 X173.091 Y67.776 E19.20537
G1 X173.429 Y68.518 E19.23249
G1 X173.669 Y69.102 E19.25349
G1 X174.046 Y70.106 E19.28916
G1 X174.321 Y70.905 E19.31726
G1 X174.51 Y71.533 E19.33907
G1 X174.8 Y72.616 E19.37636
G1 X174.982 Y73.379 E19.40245
G1 X175.111 Y74.025 E19.42436
G1 X175.296 Y75.143 E19.46205
G1 X175.403 Y75.91 E19.48781
G1 X175.47 Y76.575 E19.51004
G1 X175.546 Y77.694 E19.54735
G1 X175.596 Y79.18 E19.5968
G1 X175.6 Y140.299 E21.62962
G1 X175.578 Y141.573 E21.672
G1 X175.524 Y142.71 E21.70986
G1 X175.48 Y143.375 E21.73203
G1 X175.391 Y144.205 E21.75979
G1 X175.203 Y145.452 E21.80174
G1 X175.08 Y146.156 E21.82551
G1 X174.908 Y146.952 E21.85259
G1 X174.578 Y148.228 E21.89643
G1 X174.396 Y148.864 E21.91843
G1 X174.144 Y149.633 E21.94535
G1 X173.727 Y150.747 E21.98491
G1 X173.44 Y151.463 E22.01057
G1 X173.152 Y152.115 E22.03427
G1 X172.807 Y152.819 E22.06035
G1 X172.256 Y153.877 E22.10003
G1 X171.956 Y154.415 E22.12051
G1 X171.637 Y154.937 E22.14086
G1 X171.152 Y155.686 E22.17054
G1 X170.736 Y156.307 E22.1954
G1 X170.245 Y156.98 E22.22311
G1 X169.462 Y157.963 E22.26491
G1 X169.015 Y158.497 E22.28807
G1 X168.654 Y158.906 E22.30621
G1 X168.23 Y159.353 E22.3267
G1 X167.564 Y160.022 E22.3581
G1 X167.071 Y160.5 E22.38094
G1 X166.465 Y161.041 E22.40796
G1 X165.504 Y161.832 E22.44936
G1 X164.948 Y162.27 E22.4729
G1 X164.28 Y162.753 E22.50032
G1 X163.294 Y163.406 E22.53965
G1 X162.624 Y163.829 E22.56601
G1 X161.908 Y164.24 E22.59346
G1 X161.054 Y164.687 E22.62552
G1 X160.151 Y165.134 E22.65904
G1 X159.48 Y165.434 E22.68348
G1 X158.766 Y165.72 E22.70906
G1 X157.639 Y166.141 E22.74908
G1 X156.772 Y166.423 E22.7794
G1 X155.604 Y166.744 E22.81969
G1 X154.912 Y166.918 E22.84342
G1 X154.395 Y167.035 E22.86105
G1 X153.803 Y167.146 E22.88109
G1 X152.836 Y167.3 E22.91365
G1 X152.141 Y167.399 E22.937
G1 X151.32 Y167.482 E22.96445
G1 X150.102 Y167.556 E23.00503
G1 X148.89 Y167.594 E23.04537
G1 X71.701 Y167.6 E25.61268
G1 X70.427 Y167.578 E25.65506
G1 X69.29 Y167.524 E25.69292
G1 X68.625 Y167.48 E25.71509
G1 X67.795 Y167.391 E25.74285
G1 X66.548 Y167.203 E25.7848
G1 X65.844 Y167.08 E25.80857
G1 X65.044 Y166.907 E25.83579
G1 X63.775 Y166.579 E25.87938
G1 X63.137 Y166.397 E25.90145
G1 X62.363 Y166.143 E25.92854
G1 X61.253 Y165.727 E25.96797
G1 X60.535 Y165.439 E25.9937
G1 X59.771 Y165.097 E26.02154
G1 X58.678 Y164.55 E26.06219
G1 X58.07 Y164.229 E26.08506
G1 X57.569 Y163.947 E26.10418
G1 X57.065 Y163.638 E26.12384
G1 X56.299 Y163.143 E26.15418
G1 X55.685 Y162.731 E26.17877
G1 X55.019 Y162.244 E26.20621
G1 X54.037 Y161.462 E26.24797
G1 X53.504 Y161.016 E26.27108
G1 X53.094 Y160.654 E26.28927
G1 X52.647 Y160.23 E26.30976
G1 X51.971 Y159.556 E26.34151
G1 X51.498 Y159.068 E26.36412
G1 X50.957 Y158.463 E26.39111
G1 X50.141 Y157.472 E26.43381
G1 X49.723 Y156.939 E26.45634
G1 X49.247 Y156.28 E26.48338
G1 X48.594 Y155.294 E26.52271
G1 X48.171 Y154.624 E26.54906
G1 X47.759 Y153.907 E26.57657
G1 X47.189 Y152.811 E26.61766
G1 X46.863 Y152.146 E26.64229
G1 X46.557 Y151.462 E26.66721
G1 X46.281 Y150.769 E26.69202
G1 X45.86 Y149.643 E26.73201
G1 X45.577 Y148.773 E26.76243
G1 X45.314 Y147.828 E26.79506
G1 X45.083 Y146.922 E26.82616
G1 X44.909 Y146.096 E26.85423
G1 X44.699 Y144.829 E26.89695
G1 X44.602 Y144.145 E26.91993
G1 X44.538 Y143.599 E26.93821
G1 X44.493 Y143.01 E26.95786
G1 X44.452 Y142.263 E26.98274
G1 X44.406 Y140.892 E27.02837
G1 X44.4 Y79.7 E29.06362
G1 X44.428 Y78.249 E29.11189
G1 X44.491 Y77.045 E29.15199
G1 X44.558 Y76.288 E29.17727
G1 X44.744 Y74.857 E29.22526
G1 X44.823 Y74.37 E29.24167
G1 X44.941 Y73.762 E29.26227
G1 X45.179 Y72.697 E29.29857
G1 X45.38 Y71.905 E29.32574
G1 X45.566 Y71.277 E29.34753
G1 X45.918 Y70.208 E29.38496
G1 X46.188 Y69.456 E29.41154
G1 X46.439 Y68.836 E29.43378
G1 X47.006 Y67.562 E29.48016
G1 X47.219 Y67.118 E29.49654
G1 X47.532 Y66.517 E29.51908
G1 X48.067 Y65.565 E29.5554
G1 X48.462 Y64.901 E29.5811
G1 X48.844 Y64.314 E29.60439
G1 X49.472 Y63.414 E29.64089
G1 X49.952 Y62.763 E29.66779
G1 X50.365 Y62.245 E29.68983
G1 X51.075 Y61.412 E29.72623
G1 X51.715 Y60.699 E29.7581
G1 X52.133 Y60.266 E29.77812
G1 X52.603 Y59.806 E29.79999
G1 X53.024 Y59.417 E29.81906
G0 F9000 X53.288 Y59.718
G1 F1800 X54.158 Y58.956 E29.85752
G1 X54.716 Y58.501 E29.88147
G1 X55.572 Y57.852 E29.9172
G1 X56.24 Y57.373 E29.94454
G1 X56.772 Y57.022 E29.96573
G1 X57.679 Y56.464 E30.00115
G1 X58.388 Y56.054 E30.02839
G1 X58.959 Y55.752 E30.04988
G1 X59.942 Y55.272 E30.08626
G1 X60.68 Y54.937 E30.11322
G1 X61.253 Y54.701 E30.13383
G1 X62.239 Y54.331 E30.16886
G1 X63.027 Y54.06 E30.19657
G1 X63.646 Y53.873 E30.21808
G1 X64.713 Y53.588 E30.25481
G1 X65.457 Y53.41 E30.28026
G1 X66.091 Y53.284 E30.30176
G1 X67.198 Y53.1 E30.33908
G1 X67.958 Y52.994 E30.3646
G1 X68.603 Y52.929 E30.38616
G1 X69.707 Y52.854 E30.42297
G1 X71.181 Y52.804 E30.47202
G1 X148.292 Y52.8 E33.03674
G1 X149.731 Y52.827 E33.08461
G1 X150.921 Y52.889 E33.12425
G1 X151.663 Y52.955 E33.14902
G1 X153.079 Y53.139 E33.19652
G1 X153.554 Y53.216 E33.21252
G1 X154.151 Y53.331 E33.23274
G1 X155.205 Y53.567 E33.26867
G1 X155.994 Y53.767 E33.29574
G1 X156.597 Y53.946 E33.31666
G1 X157.654 Y54.294 E33.35367
G1 X158.402 Y54.562 E33.3801
G1 X159.002 Y54.805 E33.40163
G1 X160.265 Y55.367 E33.44761
G1 X160.697 Y55.574 E33.46354
G1 X161.287 Y55.881 E33.48566
G1 X162.23 Y56.411 E33.52164
G1 X162.901 Y56.811 E33.54762
G1 X163.456 Y57.172 E33.56964
G1 X164.621 Y57.99 E33.61699
G1 X164.989 Y58.265 E33.63227
G1 X165.49 Y58.665 E33.65359
G1 X166.318 Y59.369 E33.68974
G1 X167.155 Y60.129 E33.72734
G1 X167.579 Y60.542 E33.74703
G1 X168.212 Y61.208 E33.77759
G1 X168.763 Y61.828 E33.80518
G1 X169.123 Y62.249 E33.8236
G1 X169.499 Y62.716 E33.84354
G1 X170.148 Y63.572 E33.87927
G1 X170.621 Y64.232 E33.90628
G1 X170.978 Y64.772 E33.92781
G1 X171.537 Y65.681 E33.9633
G1 X171.941 Y66.38 E33.99015
G1 X172.245 Y66.955 E34.01179
G1 X172.727 Y67.942 E34.04832
G1 X173.059 Y68.671 E34.07496
G1 X173.295 Y69.243 E34.09554
G1 X173.668 Y70.236 E34.13082
G1 X173.938 Y71.021 E34.15843
G1 X174.124 Y71.636 E34.1798
G1 X174.411 Y72.709 E34.21675
G1 X174.59 Y73.457 E34.24233
G1 X174.716 Y74.091 E34.26383
G1 X174.9 Y75.198 E34.30115
G1 X175.005 Y75.95 E34.32641
G1 X175.071 Y76.602 E34.3482
G1 X175.146 Y77.708 E34.38507
G1 X175.196 Y79.18 E34.43406
G1 X175.2 Y140.292 E36.46665
G1 X175.178 Y141.554 E36.50863
G1 X175.125 Y142.684 E36.54626
G1 X175.082 Y143.332 E36.56786
G1 X174.995 Y144.146 E36.59509
G1 X174.809 Y145.383 E36.63669
G1 X174.689 Y146.072 E36.65995
G1 X174.521 Y146.852 E36.68649
G1 X174.193 Y148.118 E36.72999
G1 X174.016 Y148.739 E36.75147
G1 X173.769 Y149.493 E36.77785
G1 X173.356 Y150.598 E36.81709
G1 X173.074 Y151.302 E36.84231
G1 X172.793 Y151.939 E36.86547
G1 X172.452 Y152.634 E36.89122
G1 X171.907 Y153.682 E36.93051
G1 X171.615 Y154.206 E36.95046
G1 X171.301 Y154.72 E36.97049
G1 X170.82 Y155.463 E36.99993
G1 X170.413 Y156.071 E37.02427
G1 X169.932 Y156.731 E37.05143
G1 X169.155 Y157.706 E37.0929
G1 X168.715 Y158.232 E37.1157
G1 X168.363 Y158.631 E37.1334
G1 X167.947 Y159.071 E37.15354
G1 X167.286 Y159.735 E37.1847
G1 X166.804 Y160.202 E37.20702
G1 X166.211 Y160.732 E37.23348
G1 X165.257 Y161.518 E37.27459
G1 X164.713 Y161.946 E37.29761
G1 X164.059 Y162.42 E37.32448
G1 X163.081 Y163.068 E37.3635
G1 X162.424 Y163.482 E37.38933
G1 X161.722 Y163.886 E37.41626
G1 X160.877 Y164.329 E37.448
G1 X159.988 Y164.769 E37.48099
G1 X159.331 Y165.063 E37.50493
G1 X158.626 Y165.345 E37.53018
G1 X157.515 Y165.761 E37.56964
G1 X156.666 Y166.037 E37.59933
G1 X155.506 Y166.356 E37.63935
G1 X154.824 Y166.528 E37.66274
G1 X154.321 Y166.642 E37.6799
G1 X153.74 Y166.751 E37.69956
G1 X152.78 Y166.904 E37.73189
G1 X152.1 Y167.001 E37.75474
G1 X151.296 Y167.083 E37.78162
