;FLAVOR:Marlin
;TIME:3063
;Filament used: 3.1011m
;Layer height: 0.2
;MINX:57.017
;MINY:85.2
;MINZ:0.2
;MAXX:162.983
;MAXY:135.8
;MAXZ:6.4
;TARGET_MACHINE.NAME:Creality Ender-3 V3 SE
;Generated with Cura_SteamEngine 5.10.0
M220 S100 ;Reset Feedrate
M221 S100 ;Reset Flowrate

G28 ;Home

M420 S1; Use saved mesh leveling data

G92 E0 ;Reset Extruder
G1 Z2.0 F3000 ;Move Z Axis up
G1 X-3 Y20 Z0.28 F5000.0 ;Move to start position
M190 S65 ; Set bed temperature and wait
M109 S220 ; Set hotend temperature and wait
G1 X-3 Y100.0 Z0.28 F1500.0 E15 ;Draw the first line
G1 X-2 Y100.0 Z0.28 F5000.0 ;Move to side a little
G1 X-2 Y20 Z0.28 F1500.0 E30 ;Draw the second line
G92 E0 ;Reset Extruder
G1 E-1.0000 F1800 ;Retract a bit
G1 Z2.0 F3000 ;Move Z Axis up
G1 E0.0000 F1800 

M82 ;absolute extrusion mode
G92 E0
G92 E0
G1 F2400 E-0.8
;LAYER_COUNT:32
;LAYER:0
M107
G0 F9000 X70.03 Y86.963 Z0.2
;TYPE:SKIRT
G1 F2400 E0
G1 F1800 X71.87 Y85.984 E0.06932
G1 X73.938 Y85.355 E0.14122
G1 X75.662 Y85.21 E0.19876
G1 X143.999 Y85.2 E2.47166
G1 X146.021 Y85.354 E2.5391
G1 X148.137 Y85.988 E2.61257
G1 X150.054 Y87.019 E2.68497
G1 X151.781 Y88.442 E2.7594
G1 X153.175 Y90.326 E2.83735
G1 X153.983 Y91.755 E2.89195
G1 X154.649 Y93.961 E2.96859
G1 X154.789 Y95.624 E3.0241
G1 X154.797 Y99.38 E3.14902
G1 X155.87 Y99.728 E3.18654
G1 X158.089 Y100.848 E3.26921
G1 X159.449 Y101.827 E3.32495
G1 X161.049 Y103.765 E3.40853
G1 X161.952 Y105.192 E3.4647
G1 X162.722 Y107.558 E3.54746
G1 X162.983 Y108.895 E3.59276
G1 X162.983 Y111.175 E3.6686
G1 X162.461 Y113.337 E3.74257
G1 X161.753 Y115.16 E3.80762
G1 X160.457 Y117.016 E3.88291
G1 X159.482 Y118.052 E3.93023
G1 X157.959 Y119.308 E3.99589
G1 X155.966 Y120.306 E4.07002
G1 X155.317 Y120.483 E4.09239
G1 X155.385 Y120.634 E4.0979
G1 X155.927 Y122.802 E4.17223
G1 X155.62 Y126.31 E4.28935
G1 X154.782 Y128.749 E4.37513
G1 X154.055 Y130.147 E4.42754
G1 X152.857 Y131.77 E4.49463
G1 X151.11 Y133.405 E4.57421
G1 X149.755 Y134.346 E4.62908
G1 X147.313 Y135.318 E4.7165
G1 X146.027 Y135.609 E4.76036
G1 X144.04 Y135.8 E4.82675
G1 X75.362 Y135.768 E7.11099
G1 X73.483 Y135.517 E7.17404
G1 X71.659 Y135.018 E7.23693
G1 X69.519 Y133.844 E7.31812
G1 X68.054 Y132.712 E7.3797
G1 X66.917 Y131.588 E7.43287
G1 X65.49 Y129.368 E7.52065
G1 X65.177 Y128.706 E7.545
G1 X64.295 Y125.429 E7.65788
G1 X64.086 Y123.208 E7.73207
G1 X64.358 Y121.601 E7.78628
G1 X64.689 Y120.443 E7.82634
G1 X63.577 Y120.048 E7.86559
G1 X62.016 Y119.217 E7.92441
G1 X60.577 Y118.19 E7.98321
G1 X59.156 Y116.514 E8.05629
G1 X58.06 Y114.836 E8.12295
G1 X57.277 Y112.439 E8.20682
G1 X57.017 Y111.105 E8.25203
G1 X57.017 Y108.825 E8.32786
G1 X57.539 Y106.663 E8.40183
G1 X58.247 Y104.839 E8.46691
G1 X59.534 Y102.994 E8.54173
G1 X60.348 Y102.116 E8.58155
G1 X62.003 Y100.729 E8.65337
G1 X64.04 Y99.682 E8.72955
G1 X65.218 Y99.399 E8.76984
G1 X65.255 Y95.097 E8.91293
G1 X65.486 Y93.555 E8.96479
G1 X65.947 Y91.941 E9.02062
G1 X67.013 Y89.953 E9.09565
G1 X68.289 Y88.389 E9.16278
G1 X70.03 Y86.963 E9.23763
G0 F9000 X70.25 Y87.299
G1 F1800 X72.021 Y86.357 E9.30435
G1 X74.014 Y85.75 E9.37365
G1 X75.695 Y85.609 E9.42975
G1 X143.999 Y85.6 E11.70155
G1 X145.949 Y85.75 E11.7666
G1 X147.985 Y86.36 E11.83729
G1 X149.828 Y87.351 E11.90689
G1 X151.487 Y88.718 E11.97839
G1 X152.853 Y90.564 E12.05477
G1 X153.614 Y91.915 E12.10634
G1 X154.253 Y94.034 E12.17995
G1 X154.39 Y95.658 E12.23416
G1 X154.398 Y99.673 E12.3677
G1 X155.69 Y100.085 E12.4128
G1 X157.855 Y101.173 E12.49339
G1 X159.175 Y102.123 E12.54749
G1 X160.711 Y103.979 E12.62761
G1 X161.588 Y105.365 E12.68217
G1 X162.329 Y107.635 E12.76159
G1 X162.583 Y108.936 E12.80568
G1 X162.583 Y111.128 E12.87858
G1 X162.088 Y113.192 E12.94918
G1 X161.396 Y114.973 E13.01273
G1 X160.165 Y116.742 E13.08441
G1 X159.227 Y117.743 E13.13004
G1 X157.738 Y118.971 E13.19423
G1 X155.822 Y119.93 E13.26549
G1 X154.714 Y120.233 E13.3037
G1 X154.997 Y120.731 E13.32275
G1 X155.523 Y122.835 E13.39488
G1 X155.226 Y126.227 E13.50813
G1 X154.427 Y128.564 E13.59028
G1 X153.7 Y129.962 E13.64269
G1 X152.583 Y131.478 E13.70532
G1 X150.882 Y133.076 E13.78294
G1 X149.563 Y133.992 E13.83636
G1 X147.224 Y134.928 E13.92015
G1 X145.988 Y135.211 E13.96232
G1 X144.04 Y135.4 E14.02742
G1 X75.362 Y135.368 E16.31166
G1 X73.589 Y135.131 E16.37115
G1 X71.809 Y134.644 E16.43253
G1 X69.764 Y133.527 E16.51003
G1 X68.299 Y132.395 E16.57161
G1 X67.229 Y131.334 E16.62173
G1 X65.852 Y129.197 E16.70628
G1 X65.539 Y128.535 E16.73064
G1 X64.693 Y125.392 E16.8389
G1 X64.489 Y123.222 E16.91139
G1 X64.743 Y121.711 E16.96235
G1 X65.111 Y120.423 E17.0069
G1 X65.23 Y120.209 E17.01505
G1 X63.764 Y119.695 E17.06672
G1 X62.248 Y118.891 E17.12379
G1 X60.85 Y117.893 E17.18092
G1 X59.491 Y116.295 E17.25069
G1 X58.424 Y114.661 E17.3156
G1 X57.67 Y112.362 E17.39607
G1 X57.417 Y111.064 E17.44006
G1 X57.417 Y108.872 E17.51296
G1 X57.912 Y106.808 E17.58356
G1 X58.603 Y105.028 E17.64707
G1 X59.862 Y103.223 E17.72026
G1 X60.64 Y102.389 E17.7582
G1 X62.224 Y101.066 E17.82684
G1 X64.181 Y100.06 E17.90003
G1 X65.616 Y99.715 E17.94911
G1 X65.651 Y95.155 E18.10078
G1 X65.871 Y93.665 E18.15088
G1 X66.321 Y92.088 E18.20542
G1 X67.345 Y90.179 E18.27748
G1 X68.576 Y88.67 E18.34225
G1 X70.25 Y87.299 E18.41421
G0 F9000 X70.47 Y87.635
G1 F1800 X72.173 Y86.729 E18.47837
G1 X74.089 Y86.146 E18.54499
G1 X75.729 Y86.008 E18.59972
G1 X143.999 Y86 E20.87039
G1 X145.877 Y86.146 E20.93304
G1 X147.833 Y86.732 E21.00096
G1 X149.602 Y87.683 E21.06776
G1 X151.196 Y88.996 E21.13645
G1 X152.504 Y90.76 E21.20949
G1 X153.244 Y92.074 E21.25964
G1 X153.857 Y94.107 E21.33027
G1 X153.991 Y95.692 E21.38317
G1 X153.999 Y100.038 E21.52772
G1 X154.456 Y100.112 E21.54312
G1 X155.511 Y100.443 E21.5799
G1 X157.621 Y101.498 E21.65836
G1 X158.901 Y102.419 E21.71081
G1 X160.373 Y104.193 E21.78748
G1 X161.223 Y105.537 E21.84037
G1 X161.936 Y107.712 E21.9165
G1 X162.183 Y108.977 E21.95937
G1 X162.183 Y111.081 E22.02935
G1 X161.715 Y113.047 E22.09656
G1 X161.04 Y114.783 E22.15851
G1 X159.872 Y116.469 E22.22673
G1 X158.972 Y117.434 E22.27062
G1 X157.517 Y118.634 E22.33335
G1 X155.678 Y119.554 E22.40174
G1 X154.113 Y119.982 E22.4557
G1 X154.622 Y120.881 E22.49007
G1 X155.119 Y122.868 E22.55819
G1 X154.833 Y126.14 E22.66743
G1 X154.072 Y128.379 E22.74608
G1 X153.345 Y129.777 E22.79849
G1 X152.283 Y131.211 E22.85784
G1 X150.654 Y132.747 E22.93231
G1 X149.37 Y133.638 E22.98429
G1 X147.135 Y134.538 E23.06443
G1 X145.899 Y134.821 E23.1066
G1 X144.04 Y135 E23.16872
G1 X75.362 Y134.968 E25.45296
G1 X73.695 Y134.745 E25.5089
G1 X71.959 Y134.27 E25.56876
G1 X69.956 Y133.176 E25.64467
G1 X68.581 Y132.111 E25.70252
G1 X67.541 Y131.08 E25.75122
G1 X66.214 Y129.026 E25.83256
G1 X65.901 Y128.364 E25.85691
G1 X65.091 Y125.355 E25.96055
G1 X64.892 Y123.24 E26.03121
G1 X65.128 Y121.821 E26.07905
G1 X65.496 Y120.533 E26.12361
G1 X65.844 Y119.999 E26.14481
G1 X63.951 Y119.341 E26.21146
G1 X62.48 Y118.565 E26.26678
G1 X61.12 Y117.594 E26.32236
G1 X59.826 Y116.076 E26.3887
G1 X58.787 Y114.486 E26.45188
G1 X58.063 Y112.285 E26.52894
G1 X57.817 Y111.023 E26.57171
G1 X57.817 Y108.919 E26.64169
G1 X58.285 Y106.953 E26.7089
G1 X58.96 Y105.215 E26.77091
G1 X60.155 Y103.495 E26.84057
G1 X60.896 Y102.696 E26.87682
G1 X62.444 Y101.403 E26.9439
G1 X64.322 Y100.438 E27.01413
G1 X66.014 Y100.031 E27.07201
G1 X66.047 Y95.213 E27.23226
G1 X66.256 Y93.775 E27.28059
G1 X66.695 Y92.235 E27.33385
G1 X67.677 Y90.405 E27.40293
G1 X68.863 Y88.951 E27.46534
G1 X70.47 Y87.635 E27.53442
G0 F9000 X70.69 Y87.971
G1 F1800 X72.325 Y87.101 E27.59602
G1 X74.164 Y86.542 E27.65995
G1 X75.763 Y86.407 E27.71332
G1 X143.999 Y86.4 E29.98286
G1 X145.805 Y86.542 E30.04311
G1 X147.679 Y87.103 E30.10818
G1 X149.378 Y88.017 E30.17234
G1 X150.903 Y89.273 E30.23805
G1 X152.155 Y90.956 E30.30782
G1 X152.874 Y92.233 E30.35656
G1 X153.461 Y94.18 E30.4242
G1 X153.592 Y95.726 E30.4758
G1 X153.6 Y100.381 E30.63063
G1 X154.338 Y100.494 E30.65546
G1 X155.333 Y100.801 E30.69009
G1 X157.387 Y101.823 E30.7664
G1 X158.628 Y102.716 E30.81725
G1 X160.035 Y104.407 E30.89042
G1 X160.858 Y105.709 E30.94165
G1 X161.543 Y107.789 E31.01448
G1 X161.783 Y109.018 E31.05613
G1 X161.783 Y111.035 E31.12322
G1 X161.342 Y112.902 E31.18702
G1 X160.684 Y114.594 E31.24741
G1 X159.543 Y116.241 E31.31405
G1 X158.717 Y117.125 E31.35429
G1 X157.296 Y118.297 E31.41555
G1 X155.534 Y119.178 E31.48107
G1 X154.205 Y119.542 E31.5269
G1 X153.6 Y119.621 E31.5472
G1 X153.6 Y119.889 E31.55611
G1 X154.247 Y121.031 E31.59977
G1 X154.715 Y122.901 E31.66388
G1 X154.439 Y126.055 E31.76918
G1 X153.717 Y128.194 E31.84427
G1 X152.99 Y129.592 E31.89668
G1 X151.962 Y130.972 E31.95391
G1 X150.426 Y132.418 E32.02408
G1 X149.178 Y133.284 E32.0746
G1 X147.045 Y134.148 E32.15114
G1 X145.86 Y134.423 E32.1916
G1 X144.04 Y134.6 E32.25242
G1 X75.362 Y134.568 E34.53666
G1 X73.8 Y134.359 E34.58908
G1 X72.11 Y133.897 E34.64735
G1 X70.148 Y132.825 E34.72171
G1 X68.863 Y131.827 E34.77583
G1 X67.853 Y130.826 E34.82312
G1 X66.576 Y128.855 E34.90124
G1 X66.263 Y128.193 E34.92559
G1 X65.489 Y125.317 E35.02465
G1 X65.295 Y123.257 E35.09347
G1 X65.523 Y121.887 E35.13966
G1 X65.864 Y120.701 E35.18071
G1 X66.4 Y119.878 E35.21337
G1 X66.4 Y119.674 E35.22016
G1 X66.026 Y119.639 E35.23265
G1 X64.137 Y118.987 E35.29912
G1 X62.713 Y118.24 E35.3526
G1 X61.393 Y117.297 E35.40656
G1 X60.161 Y115.857 E35.46959
G1 X59.151 Y114.311 E35.53101
G1 X58.456 Y112.208 E35.60468
G1 X58.217 Y110.982 E35.64622
G1 X58.217 Y108.965 E35.71331
G1 X58.658 Y107.098 E35.77711
G1 X59.316 Y105.405 E35.83753
G1 X60.484 Y103.723 E35.90563
G1 X61.152 Y103.003 E35.9383
G1 X62.664 Y101.74 E36.00383
G1 X64.463 Y100.815 E36.07111
G1 X66.412 Y100.347 E36.13777
G1 X66.443 Y95.271 E36.30661
G1 X66.652 Y93.833 E36.35494
G1 X67.067 Y92.386 E36.405
G1 X68.009 Y90.631 E36.47125
G1 X69.15 Y89.232 E36.5313
G1 X70.69 Y87.971 E36.5975
G0 F9000 X70.913 Y88.305
G1 F1800 X72.477 Y87.473 E36.65642
G1 X74.239 Y86.938 E36.71767
G1 X75.797 Y86.806 E36.76967
G1 X143.999 Y86.8 E39.03808
G1 X145.733 Y86.938 E39.09593
G1 X147.527 Y87.475 E39.15822
G1 X149.152 Y88.349 E39.21959
G1 X150.61 Y89.55 E39.28242
G1 X151.806 Y91.152 E39.34891
G1 X152.504 Y92.392 E39.39624
G1 X153.065 Y94.253 E39.46088
G1 X153.193 Y95.76 E39.51119
G1 X153.2 Y100.727 E39.67639
G1 X154.222 Y100.877 E39.71075
G1 X155.156 Y101.16 E39.74321
G1 X157.153 Y102.148 E39.81731
G1 X158.353 Y103.011 E39.86647
G1 X159.727 Y104.663 E39.93794
G1 X160.492 Y105.878 E39.98569
G1 X161.15 Y107.866 E40.05534
G1 X161.383 Y109.059 E40.09577
G1 X161.383 Y110.991 E40.16003
G1 X160.969 Y112.757 E40.22036
G1 X160.328 Y114.405 E40.27917
G1 X159.214 Y116.013 E40.34424
G1 X158.462 Y116.816 E40.38083
G1 X157.075 Y117.96 E40.44063
G1 X155.392 Y118.802 E40.50322
G1 X154.153 Y119.145 E40.54598
G1 X153.2 Y119.27 E40.57795
G1 X153.2 Y120.013 E40.60266
G1 X153.28 Y120.129 E40.60734
G1 X153.872 Y121.179 E40.64744
G1 X154.311 Y122.934 E40.70761
G1 X154.045 Y125.972 E40.80904
G1 X153.362 Y128.009 E40.88049
G1 X152.635 Y129.407 E40.9329
G1 X151.687 Y130.681 E40.98572
G1 X150.198 Y132.089 E41.05388
G1 X148.984 Y132.931 E41.10302
G1 X146.953 Y133.759 E41.17597
G1 X145.821 Y134.025 E41.21465
G1 X144.04 Y134.2 E41.27417
G1 X75.362 Y134.168 E43.55841
G1 X73.906 Y133.973 E43.60727
G1 X72.258 Y133.522 E43.66409
G1 X70.393 Y132.509 E43.73468
G1 X69.145 Y131.543 E43.78717
G1 X68.164 Y130.57 E43.83313
G1 X66.938 Y128.684 E43.90795
G1 X66.625 Y128.022 E43.9323
G1 X65.887 Y125.279 E44.02678
G1 X65.698 Y123.274 E44.09376
G1 X65.918 Y121.953 E44.1383
G1 X66.232 Y120.869 E44.17584
G1 X66.8 Y119.996 E44.21048
G1 X66.8 Y119.311 E44.23326
G1 X66.111 Y119.245 E44.25628
G1 X64.322 Y118.632 E44.31918
G1 X62.945 Y117.914 E44.37083
G1 X61.665 Y117 E44.42315
G1 X60.465 Y115.597 E44.48455
G1 X59.516 Y114.138 E44.54244
G1 X58.849 Y112.131 E44.61278
G1 X58.617 Y110.941 E44.65311
G1 X58.617 Y109.009 E44.71737
G1 X59.031 Y107.243 E44.7777
G1 X59.672 Y105.595 E44.83651
G1 X60.813 Y103.951 E44.90307
G1 X61.408 Y103.31 E44.93216
G1 X62.884 Y102.077 E44.99612
G1 X64.603 Y101.193 E45.06042
G1 X66.436 Y100.747 E45.12316
G1 X66.81 Y100.705 E45.13568
G1 X66.839 Y95.328 E45.31452
G1 X67.037 Y93.943 E45.36105
G1 X67.441 Y92.534 E45.40981
G1 X68.341 Y90.857 E45.47311
G1 X69.435 Y89.516 E45.53067
G1 X70.913 Y88.305 E45.59422
G0 F9000 X71.133 Y88.641
G1 F1800 X72.629 Y87.845 E45.65058
G1 X74.314 Y87.334 E45.70915
G1 X75.831 Y87.205 E45.75978
G1 X143.999 Y87.2 E48.02706
G1 X145.661 Y87.334 E48.08252
G1 X147.375 Y87.847 E48.14203
G1 X148.926 Y88.681 E48.2006
G1 X150.318 Y89.828 E48.26059
G1 X151.457 Y91.348 E48.32376
G1 X152.134 Y92.551 E48.36968
G1 X152.669 Y94.326 E48.43134
G1 X152.794 Y95.794 E48.48034
G1 X152.8 Y101.074 E48.65595
G1 X154.106 Y101.26 E48.69983
G1 X155.04 Y101.543 E48.73229
G1 X156.919 Y102.473 E48.80202
G1 X158.08 Y103.308 E48.84958
G1 X159.388 Y104.876 E48.9175
G1 X160.127 Y106.05 E48.96364
G1 X160.757 Y107.943 E49.02999
G1 X160.983 Y109.1 E49.0692
G1 X160.983 Y110.944 E49.13054
G1 X160.596 Y112.612 E49.18749
G1 X159.971 Y114.218 E49.24481
G1 X158.921 Y115.74 E49.3063
G1 X158.207 Y116.507 E49.34116
G1 X156.854 Y117.623 E49.39949
G1 X155.249 Y118.426 E49.45918
G1 X154.046 Y118.759 E49.5007
G1 X152.8 Y118.917 E49.54247
G1 X152.8 Y120.139 E49.58312
G1 X152.931 Y120.325 E49.59068
G1 X153.497 Y121.33 E49.62905
G1 X153.907 Y122.967 E49.68518
G1 X153.651 Y125.891 E49.7828
G1 X153.007 Y127.824 E49.85057
G1 X152.28 Y129.222 E49.90298
G1 X151.412 Y130.391 E49.9514
G1 X149.97 Y131.76 E50.01754
G1 X148.791 Y132.578 E50.06526
G1 X146.86 Y133.37 E50.13468
G1 X145.781 Y133.627 E50.17157
G1 X144.04 Y133.8 E50.22976
G1 X75.362 Y133.768 E52.514
G1 X74.012 Y133.587 E52.55931
G1 X72.407 Y133.148 E52.61465
G1 X70.637 Y132.192 E52.68156
G1 X69.427 Y131.259 E52.73238
G1 X68.474 Y130.314 E52.77702
G1 X67.3 Y128.513 E52.84852
G1 X66.987 Y127.851 E52.87288
G1 X66.285 Y125.241 E52.96277
G1 X66.101 Y123.291 E53.02791
G1 X66.313 Y122.019 E53.07081
G1 X66.6 Y121.036 E53.10487
G1 X67.2 Y120.114 E53.14145
G1 X67.2 Y118.948 E53.18023
G1 X66.198 Y118.852 E53.21371
G1 X64.507 Y118.277 E53.27312
G1 X63.13 Y117.559 E53.32477
G1 X61.937 Y116.703 E53.37361
G1 X60.8 Y115.379 E53.43165
G1 X59.879 Y113.963 E53.48783
G1 X59.242 Y112.054 E53.55477
G1 X59.017 Y110.9 E53.59387
G1 X59.017 Y109.056 E53.65521
G1 X59.404 Y107.388 E53.71216
G1 X60.029 Y105.782 E53.76948
G1 X61.107 Y104.222 E53.83254
G1 X61.664 Y103.617 E53.8599
G1 X63.104 Y102.414 E53.92231
G1 X64.743 Y101.571 E53.98361
G1 X66.531 Y101.136 E54.04481
G1 X67.208 Y101.066 E54.06745
G1 X67.235 Y95.384 E54.25643
G1 X67.422 Y94.053 E54.30114
G1 X67.815 Y92.682 E54.34857
G1 X68.673 Y91.083 E54.40893
G1 X69.722 Y89.797 E54.46413
G1 X71.133 Y88.641 E54.5248
G0 F9000 X71.353 Y88.977
G1 F1800 X72.781 Y88.217 E54.5786
G1 X74.389 Y87.73 E54.63448
G1 X75.865 Y87.604 E54.68375
G1 X143.999 Y87.6 E56.9499
G1 X145.589 Y87.73 E57.00296
G1 X147.223 Y88.219 E57.05969
G1 X148.7 Y89.013 E57.11546
G1 X150.027 Y90.106 E57.17264
G1 X151.108 Y91.544 E57.23247
G1 X151.764 Y92.71 E57.27697
G1 X152.273 Y94.399 E57.33564
G1 X152.395 Y95.828 E57.38335
G1 X152.4 Y101.422 E57.5694
G1 X153.99 Y101.643 E57.6228
G1 X154.924 Y101.926 E57.65525
G1 X156.685 Y102.798 E57.72061
G1 X157.805 Y103.604 E57.76651
G1 X159.049 Y105.089 E57.83094
G1 X159.764 Y106.225 E57.87558
G1 X160.364 Y108.02 E57.93853
G1 X160.583 Y109.141 E57.97652
G1 X160.583 Y110.898 E58.03496
G1 X160.223 Y112.467 E58.0885
G1 X159.615 Y114.03 E58.14428
G1 X158.628 Y115.468 E58.20229
G1 X157.952 Y116.198 E58.23538
G1 X156.633 Y117.286 E58.29225
G1 X155.106 Y118.05 E58.34904
G1 X153.939 Y118.373 E58.38932
G1 X152.4 Y118.564 E58.4409
G1 X152.4 Y120.268 E58.49757
G1 X152.583 Y120.521 E58.50796
G1 X153.122 Y121.477 E58.54446
G1 X153.503 Y123 E58.59668
G1 X153.257 Y125.807 E58.6904
G1 X152.652 Y127.639 E58.75456
G1 X151.925 Y129.037 E58.80697
G1 X151.092 Y130.151 E58.85324
G1 X149.742 Y131.431 E58.91511
G1 X148.599 Y132.224 E58.96138
G1 X146.766 Y132.981 E59.02734
G1 X145.741 Y133.229 E59.06242
G1 X144.04 Y133.4 E59.11928
G1 X75.362 Y133.368 E61.40352
G1 X74.117 Y133.201 E61.4453
